X: 1953
T: Yalancının Birine
C: Necdet Tokatlıoğlu
O: Turkey
F: http://compmusic.upf.edu/node/140
N: hicaz--sarki--duyek--yalancinin_birine--necdet_tokatlioglu
N: makam= hicaz
N: form= sarki
N: usul= duyek = 8/4
M: 8/4
L: 1/16
K: C _7/8B ^f ^c 
Q: 1/4=228
%%MIDI tuningsystem comma53
A2 B4 A2 B2 A2 B2 A2  | e16  | A2 B4 A2 B2 A2 B2 c2  | A16  | \
w:  ARANAĞME  |   |   |   | 
A2 B4 A2 B2 A2 B2 A2  | 
w:   | 
e16  | A2 B4 A2 B2 A2 B2 c2  | A16  | e2 =f4 a2 g2 f2 e2 d2  | \
w:   |   |   |   | 
c8 c2 B2 A2 G2  | 
w:   | 
A2 B4 d2 c4 B2 c2  | A6 B2 c2 d2 e4  | \
w:   |   | 
e2 =f4 a2 g2 f2 e2 d2  | c8 c2 B2 A2 G2  | 
w:   |   | 
A2 B4 d2 c4 B2 c2  | A16  | a2 a4 b2 a4 g2 =f2  | a16  | \
w:   |   |  Ya lan cı nın  bi ri  |  ne   | 
a2 b4 a2 g4 =f2 g2  | e16  | 
w:  ka pıl dı  kal dı  gö  |  nül    | 
a2 a4 b2 a4 g2 =f2  | a16  | a2 b4 a2 g4 =f2 g2  | e16  | \
w:  Ya lan cı nın  bi ri  |  ne   |  ka pıl dı  kal dı  gö  |  nül    | 
e2 =f4 a2 g2 f2 e2 d2  | 
w:  İ nan dı  yan *  dı  yi  | 
c8 c2 B2 A2 G2  | A2 B4 d2 c4 B2 c2  | \
w:  ne   |  çe kil mez_ ol du  ö  | 
A6 B2 c2 d2 e4  | e2 =f4 a2 g2 f2 e2 d2  | 
w:  mür   SAZ  |  İ nan dı  yan *  dı  yi  | 
c8 c2 B2 A2 G2  | A2 B4 d2 c4 B2 c2  | A16  | \
w:  ne   |  çe kil mez_ ol du  ö  |  mür    | 
A2 B4 A2 B2 A2 B2 A2  | e16  | A2 B4 A2 B2 A2 B2 c2  | 
w:  Ne  göz le rin  *  ye şi  |  li   |  ne  saç la rın  *  sa rı  | 
A16  | A2 B4 A2 B2 A2 B2 A2  | e16  | A2 B4 A2 B2 A2 B2 c2  | A16  | \
w:  sı    |  Ne  göz le rin  *  ye şi  |  li   |  ne  saç la rın  *  sa rı  |  sı    | 
e4 =f2 a2 g2 f2 e2 d2  | 
w:  Geç ti  yo lun  *  ya rı  | 
c8 c2 B2 A2 G2  | =f2 e4 d2 c4 B2 c2  | \
w:  sı   |  çe kil mez_ ol du  ö  | 
A6 B2 c2 d2 e4  | e4 =f2 a2 g2 f2 e2 d2  | 
w:  mür   SAZ  |  Geç ti  yo lun  *  ya rı  | 
c8 c2 B2 A2 G2  | =f2 e4 d2 c4 B2 c2  | A16  | \
w:  sı   |  çe kil mez_ ol du  ö  |  mür    | 
A2 B4 A2 B2 A2 B2 A2  | e16  | A2 B4 A2 B2 A2 B2 c2  | 
w:  ARANAĞME  |   |   | 
A16  | A2 B4 A2 B2 A2 B2 A2  | e16  | A2 B4 A2 B2 A2 B2 c2  | A16  | \
w:   |   |   |   |   | 
e2 =f4 a2 g2 f2 e2 d2  | 
w:   | 
c8 c2 B2 A2 G2  | A2 B4 d2 c4 B2 c2  | \
w:   |   | 
A6 B2 c2 d2 e4  | e2 =f4 a2 g2 f2 e2 d2  | 
w:   |   | 
c8 c2 B2 A2 G2  | A2 B4 d2 c4 B2 c2  | A16  | \
w:   |   |   | 
a2 a4 b2 a4 g2 =f2  | a16  | a2 b4 a2 g4 =f2 g2  | 
w:  Ya lan cı nın  bi ri  |  ne   |  ka pıl dı  kal dı  gö  | 
e16  | a2 a4 b2 a4 g2 =f2  | a16  | a2 b4 a2 g4 =f2 g2  | e16  | \
w:  nül    |  Ya lan cı nın  bi ri  |  ne   |  ka pıl dı  kal dı  gö  |  nül    | 
e2 =f4 a2 g2 f2 e2 d2  | 
w:  İ nan dı  yan *  dı  yi  | 
c8 c2 B2 A2 G2  | A2 B4 d2 c4 B2 c2  | \
w:  ne   |  çe kil mez_ ol du  ö  | 
A6 B2 c2 d2 e4  | e2 =f4 a2 g2 f2 e2 d2  | 
w:  mür   SAZ  |  İ nan dı  yan *  dı  yi  | 
c8 c2 B2 A2 G2  | A2 B4 d2 c4 B2 c2  | A16  | \
w:  ne   |  çe kil mez_ ol du  ö  |  mür    | 
A2 B4 A2 B2 A2 B2 A2  | e16  | A2 B4 A2 B2 A2 B2 c2  | 
w:  Ne  göz le rin  *  ye şi  |  li   |  ne  saç la rın  *  sa rı  | 
A16  | A2 B4 A2 B2 A2 B2 A2  | e16  | A2 B4 A2 B2 A2 B2 c2  | A16  | \
w:  sı    |  Ne  göz le rin  *  ye şi  |  li   |  ne  saç la rın  *  sa rı  |  sı    | 
e4 =f2 a2 g2 f2 e2 d2  | 
w:  Geç ti  yo lun  *  ya rı  | 
c8 c2 B2 A2 G2  | =f2 e4 d2 c4 B2 c2  | \
w:  sı   |  çe kil mez_ ol du  ö  | 
A6 B2 c2 d2 e4  | e4 =f2 a2 g2 f2 e2 d2  | 
w:  mür   SAZ  |  Geç ti  yo lun  *  ya rı  | 
c8 c2 B2 A2 G2  | =f2 e4 d2 c4 B2 c2  | A16  | |


